dist/images/title-icons/chat-icon.svg

<svg width="31" height="31" viewBox="0 0 31 31" fill="none" xmlns="http://www.w3.org/2000/svg">
<g clip-path="url(#clip0_12_200)">
<path d="M29.1436 24.9617C30.3513 23.3349 31 21.3687 31 19.3526C30.9601 16.049 29.2634 12.9849 26.4688 11.2083C26.1893 8.26404 24.802 5.52933 22.5963 3.56313C20.0412 1.23763 16.7077 -0.0299117 13.2643 3.03458e-05C9.82099 -0.0299117 6.48744 1.23763 3.92241 3.54317C1.43722 5.75888 0.0199614 8.91278 0 12.2363C0 14.7615 0.828397 17.2167 2.36542 19.2128L0.0898262 24.8519C-0.159691 25.4707 0.13973 26.1794 0.758532 26.4289C1.05795 26.5486 1.40728 26.5486 1.7067 26.4189L8.20412 23.5544C9.02254 23.8638 9.86091 24.1034 10.7193 24.2531C11.6275 25.7302 12.8851 26.9579 14.3822 27.8162C16.1088 28.8242 18.075 29.3532 20.0811 29.3632H20.171C21.5483 29.3632 22.9156 29.1237 24.2131 28.6446L29.3133 30.8902C29.9221 31.1597 30.6407 30.8902 30.9102 30.2714C31.0399 29.972 31.0499 29.6327 30.9202 29.3333L29.1536 24.9617H29.1436ZM26.6384 25.2212L27.5567 27.4868L24.7222 26.2392C24.4128 26.0995 24.0634 26.0995 23.754 26.2392C22.6362 26.7183 21.4285 26.9579 20.2209 26.9678H20.171C17.8554 26.9778 15.6198 26.0895 13.953 24.4826C15.9391 24.3928 17.8754 23.8838 19.652 22.9855C20.2508 22.6861 20.4903 21.9575 20.1809 21.3587C19.8715 20.7598 19.1529 20.5203 18.5541 20.8297C15.4601 22.3767 11.8471 22.4865 8.65325 21.1491C8.34385 21.0193 7.99453 21.0193 7.68513 21.1491L3.45332 23.0155L4.88055 19.4923C5.05023 19.0731 4.97038 18.594 4.68094 18.2547C3.23374 16.5979 2.43529 14.472 2.42531 12.2663C2.42531 6.82682 7.2859 2.42534 13.2643 2.42534C19.2428 2.42534 24.1033 6.82682 24.1033 12.2463C24.1033 14.0129 23.5844 15.7296 22.6162 17.2067C22.2569 17.7656 22.4166 18.5142 22.9755 18.8835C23.5345 19.2528 24.283 19.0831 24.6523 18.5242C25.5106 17.2167 26.0895 15.7396 26.359 14.2025C27.7663 15.5499 28.5747 17.4063 28.5847 19.3526C28.5847 21.0593 27.9659 22.6961 26.8381 23.9836C26.5486 24.323 26.4688 24.802 26.6384 25.2212ZM14.4121 18.4743C14.4121 19.143 13.8731 19.6819 13.2044 19.6819C12.5357 19.6819 11.9968 19.143 11.9968 18.4743C11.9968 17.8056 12.5357 17.2666 13.2044 17.2666C13.8731 17.2666 14.4121 17.8056 14.4121 18.4743ZM17.8055 9.40183V9.45174C17.8055 11.2782 16.7176 12.915 15.0409 13.6336C14.6916 13.7933 14.462 14.1427 14.472 14.5219V14.6018C14.472 15.2705 13.933 15.8094 13.2643 15.8094C12.5956 15.8094 12.0567 15.2705 12.0567 14.6018V14.5219C12.0567 13.1646 12.8551 11.9369 14.1027 11.408C14.8712 11.0786 15.3802 10.33 15.3902 9.49166V9.46172C15.3902 8.29398 14.442 7.34581 13.2743 7.34581C12.1066 7.34581 11.1584 8.29398 11.1584 9.46172C11.1584 10.1304 10.6194 10.6694 9.95074 10.6694C9.28203 10.6694 8.74308 10.1304 8.74308 9.46172C8.7331 6.95657 10.7492 4.91053 13.2543 4.89056C15.7595 4.88058 17.8055 6.89668 17.8255 9.40183H17.8055Z" fill="white"/>
</g>
<defs>
<clipPath id="clip0_12_200">
<rect width="31" height="31" fill="white"/>
</clipPath>
</defs>
</svg>

<svg width="31" height="31" fill="none" xmlns="http://www.w3.org/2000/svg"><g clip-path="url(#a)"><path d="M29.144 24.962A9.408 9.408 0 0 0 31 19.352a9.783 9.783 0 0 0-4.531-8.144 11.738 11.738 0 0 0-3.873-7.645A13.685 13.685 0 0 0 13.264 0a13.804 13.804 0 0 0-9.342 3.543A11.725 11.725 0 0 0 0 12.236c0 2.525.828 4.98 2.365 6.977L.09 24.852c-.25.619.05 1.327.669 1.577.299.12.648.12.948-.01l6.497-2.865c.819.31 1.657.55 2.515.7a10.35 10.35 0 0 0 3.663 3.562 11.41 11.41 0 0 0 5.7 1.547h.089c1.377 0 2.745-.24 4.042-.718l5.1 2.245a1.206 1.206 0 0 0 1.607-1.557l-1.766-4.371h-.01Zm-2.506.26.919 2.265-2.835-1.248a1.17 1.17 0 0 0-.968 0 9.17 9.17 0 0 1-3.533.729h-.05a8.906 8.906 0 0 1-6.218-2.485 14.014 14.014 0 0 0 5.699-1.498 1.2 1.2 0 0 0 .529-1.626 1.202 1.202 0 0 0-1.627-.53 11.875 11.875 0 0 1-9.9.32c-.31-.13-.66-.13-.969 0l-4.232 1.866 1.428-3.523c.17-.419.09-.898-.2-1.237a9.16 9.16 0 0 1-2.256-5.989c0-5.44 4.86-9.84 10.84-9.84 5.978 0 10.838 4.4 10.838 9.82a9.035 9.035 0 0 1-1.487 4.96 1.212 1.212 0 1 0 2.036 1.317 11.506 11.506 0 0 0 1.707-4.32 7.187 7.187 0 0 1 2.226 5.15 7.012 7.012 0 0 1-1.747 4.63c-.29.34-.37.819-.2 1.238Zm-12.226-6.748c0 .669-.539 1.208-1.208 1.208a1.205 1.205 0 0 1-1.207-1.208c0-.668.539-1.207 1.207-1.207.67 0 1.208.539 1.208 1.207Zm3.393-9.072v.05a4.545 4.545 0 0 1-2.764 4.182.96.96 0 0 0-.569.888v.08c0 .668-.539 1.207-1.208 1.207a1.205 1.205 0 0 1-1.207-1.207v-.08a3.37 3.37 0 0 1 2.046-3.114 2.116 2.116 0 0 0 1.287-1.916v-.03a2.117 2.117 0 0 0-4.232 0c0 .668-.539 1.207-1.207 1.207a1.205 1.205 0 0 1-1.208-1.207 4.551 4.551 0 0 1 4.511-4.571 4.551 4.551 0 0 1 4.572 4.51h-.02Z" fill="#fff"/></g><defs><clipPath id="a"><path fill="#fff" d="M0 0h31v31H0z"/></clipPath></defs></svg>
